X: 32776
T: Ponte Isabella
R: waltz
M: 3/4
K: Eminor
|:EF GB eg|f2 fede|1 B2 BAGA|B6:|2 B2 BAGB|A6||
|:c3e cA|E4 ec|B3d BG|D4 cB|
[1 A3c AF|D2 G2 A2|B4 BA|B6:|
[2 A3c AF|D2 G2 F2|E6-|E6||
|:g3f e2|g6|f3e de|B6|
[1 A3B cA|B2 A2 G2|F3E FA|B6:|
[2 cB AB cA|BG EB, EG|AF BA GF|E6||

